brandFactory_export/1.Light/Podium _1Light.svg

<?xml version="1.0" encoding="UTF-8"?>
<svg width="24px" height="24px" viewBox="0 0 24 24" version="1.1" xmlns="http://www.w3.org/2000/svg" xmlns:xlink="http://www.w3.org/1999/xlink">
    <title>1.Light/Podium _1Light</title>
    <g id="Symbols" stroke="none" stroke-width="1" fill="none" fill-rule="evenodd">
        <g id="1.Light/Podium-_1Light" fill="#5CB615" fill-rule="nonzero">
            <path d="M8.73613445,3.30756303 C8.69579832,3.42184874 8.72268908,3.54285714 8.80672269,3.62689076 L9.90252101,4.72605042 C10.0134454,4.84033613 10.0739496,5.02857143 10.0504202,5.18655462 L9.79159664,6.73613445 C9.77142857,6.85714286 9.81512605,6.97142857 9.91260504,7.03865546 C9.99663866,7.09579832 10.097479,7.10252101 10.1848739,7.05210084 L11.5428571,6.31932773 C11.6168067,6.2789916 11.7042017,6.25882353 11.7882353,6.25882353 C11.8823529,6.25882353 11.9731092,6.28235294 12.0537815,6.32941176 L13.3915966,7.05210084 C13.4789916,7.09915966 13.5831933,7.09243697 13.6638655,7.03865546 C13.7613445,6.97142857 13.8084034,6.85714286 13.7848739,6.73613445 L13.5260504,5.18655462 C13.4991597,5.02184874 13.5630252,4.82689076 13.687395,4.71260504 L14.7697479,3.62689076 C14.8504202,3.54285714 14.8773109,3.42184874 14.8403361,3.30756303 C14.8067227,3.20672269 14.7226891,3.12941176 14.6184874,3.11596639 L13.102521,2.8907563 C12.9411765,2.86722689 12.7865546,2.75294118 12.7159664,2.60840336 L12.0336134,1.18655462 C11.9361345,0.98487395 11.6369748,0.98487395 11.5428571,1.18655462 L10.8638655,2.59831933 C10.7865546,2.75630252 10.6151261,2.87731092 10.4369748,2.89411765 L8.95798319,3.11596639 C8.85378151,3.12941176 8.7697479,3.20336134 8.73613445,3.30756303 Z M9.02184874,5.25042017 L8.09411765,4.31932773 C7.74789916,3.9697479 7.6302521,3.46218487 7.78823529,2.99495798 C7.94285714,2.53445378 8.33613445,2.20840336 8.81008403,2.13445378 L10.0705882,1.94621849 L10.6386555,0.759663866 C10.8537815,0.312605042 11.2941176,0.0302521008 11.7915966,0.0302521008 C12.2857143,0.0302521008 12.7294118,0.309243697 12.9411765,0.756302521 L13.512605,1.94285714 L14.7731092,2.13109244 C15.2470588,2.20168067 15.6403361,2.53109244 15.794958,2.99159664 C15.9529412,3.45882353 15.8352941,3.96638655 15.4857143,4.31596639 L14.5579832,5.24705882 L14.7764706,6.57142857 C14.8571429,7.06890756 14.6554622,7.55294118 14.2453782,7.84201681 C13.8588235,8.11428571 13.3277311,8.14453782 12.9109244,7.91932773 L11.7915966,7.31092437 L10.6722689,7.91932773 C10.4806723,8.02352941 10.2722689,8.07394958 10.0672269,8.07394958 C9.81176471,8.07394958 9.55630252,7.99663866 9.34117647,7.84201681 C8.93109244,7.55294118 8.72605042,7.06890756 8.80672269,6.57142857 L9.02184874,5.25042017 L9.02184874,5.25042017 Z M22.6218487,22.6151261 L22.6218487,18.1983193 C22.6016807,18.194958 22.5815126,18.194958 22.5613445,18.194958 L16.1411765,18.194958 C16.1210084,18.194958 16.1008403,18.194958 16.0840336,18.1983193 L16.0840336,22.6151261 C16.1008403,22.6151261 16.1210084,22.6184874 16.1411765,22.6184874 L22.5613445,22.6184874 C22.5815126,22.6184874 22.6016807,22.6184874 22.6218487,22.6151261 Z M8.60168067,22.6420168 L15.0218487,22.6420168 L15.0823529,11.4991597 L8.60168067,11.4957983 L8.54453782,22.0907563 L8.54453782,22.6386555 L8.60168067,22.6420168 L8.60168067,22.6420168 Z M1.06218487,22.6184874 L7.48235294,22.6184874 C7.50252101,22.6184874 7.52268908,22.6151261 7.5394958,22.6117647 L7.5394958,15.2605042 C7.52268908,15.2537815 7.50252101,15.2504202 7.48235294,15.2504202 L1.06218487,15.2504202 C1.04201681,15.2504202 1.02184874,15.2537815 1.00504202,15.2605042 L1.00504202,22.6151261 C1.01848739,22.6184874 1.04201681,22.6184874 1.06218487,22.6184874 L1.06218487,22.6184874 Z M16.1411765,23.6571429 L1.06218487,23.6571429 C0.477310924,23.6571429 0,23.2470588 0,22.7731092 L0,15.0957983 C0,14.5815126 0.54789916,14.2352941 1.06218487,14.2352941 L7.48235294,14.2352941 C7.50252101,14.2352941 7.52268908,14.2453782 7.5394958,14.2453782 L7.5394958,11.4957983 C7.5394958,10.9546218 8.03697479,10.4773109 8.60168067,10.4773109 L15.0218487,10.4773109 C15.5865546,10.4773109 16.0840336,10.9546218 16.0840336,11.4957983 L16.0840336,17.1831933 C16.1008403,17.1831933 16.1243697,17.1764706 16.1411765,17.1764706 L22.5613445,17.1764706 C23.0890756,17.1764706 23.6235294,17.4285714 23.6235294,17.912605 L23.6235294,22.8907563 C23.6235294,23.3243697 23.1831933,23.6504202 22.5579832,23.6504202 L16.1411765,23.6504202 L16.1411765,23.6571429 Z" id="Podium-_1Light"></path>
        </g>
    </g>
</svg>

<svg width="24" height="24" viewBox="0 0 24 24" xmlns="http://www.w3.org/2000/svg"><path d="M8.736 3.308a.303.303 0 00.07.319l1.097 1.1c.11.113.17.302.147.46l-.258 1.55a.298.298 0 00.12.302.25.25 0 00.273.013l1.358-.733a.523.523 0 01.51.01l1.339.723c.087.047.191.04.272-.013a.292.292 0 00.12-.303l-.258-1.55a.554.554 0 01.161-.473l1.083-1.086a.316.316 0 00.07-.32.276.276 0 00-.222-.191l-1.515-.225a.533.533 0 01-.387-.283l-.682-1.421c-.098-.202-.397-.202-.491 0l-.68 1.411a.55.55 0 01-.426.296l-1.479.222a.27.27 0 00-.222.192zm.286 1.942l-.928-.93a1.287 1.287 0 01-.306-1.325 1.28 1.28 0 011.022-.86l1.26-.189L10.64.76c.215-.447.655-.73 1.153-.73.494 0 .937.28 1.15.726l.57 1.187 1.261.188c.474.07.867.4 1.022.86.158.468.04.975-.31 1.325l-.927.931.218 1.324c.081.498-.12.982-.53 1.271a1.288 1.288 0 01-1.335.077l-1.12-.608-1.119.608c-.191.105-.4.155-.605.155-.255 0-.51-.077-.726-.232a1.288 1.288 0 01-.534-1.27l.215-1.322zm13.6 17.365v-4.417c-.02-.003-.04-.003-.06-.003h-6.42c-.021 0-.041 0-.058.003v4.417c.017 0 .037.003.057.003h6.42c.02 0 .04 0 .06-.003zm-14.02.027h6.42l.06-11.143-6.48-.003-.057 10.595v.548l.057.003zm-7.54-.024h6.42c.02 0 .04-.003.057-.006V15.26a.157.157 0 00-.057-.01h-6.42c-.02 0-.04.003-.057.01v7.354c.013.003.037.003.057.003zm15.08 1.04H1.061c-.585 0-1.062-.41-1.062-.885v-7.677c0-.514.548-.86 1.062-.86h6.42c.02 0 .04.01.057.01v-2.75c0-.541.498-1.019 1.063-1.019h6.42c.565 0 1.062.478 1.062 1.019v5.687c.017 0 .04-.007.057-.007h6.42c.528 0 1.063.253 1.063.737v4.978c0 .433-.44.76-1.066.76h-6.417v.006z" fill="#5CB615" fill-rule="nonzero"/></svg>
